X: 2
T: The Sporting Pitchfork
R: jig
M: 6/8
L: 1/8
K: Gmaj
~F3 ~E3|~F3 DEF|~G3 AGA|cAG FGA|~B3 BAG|ABA ABc|dcA AGF|1 AGF GAG:|2 AGF G2B|||:d2e fed|~f3 def|g2a bag|fd^c d2=c|~B3 BAG|ABA ABc|dcA AGF|1 AGF G2B:|2 AGF GAG||


Tune 1761	Setting 15208

